svgs/sharp-duotone-light/square-chevron-left.svg

<svg xmlns="http://www.w3.org/2000/svg" viewBox="0 0 448 512"><!--! Font Awesome Pro 7.1.0 by @fontawesome - https://fontawesome.com License - https://fontawesome.com/license (Commercial License) Copyright 2025 Fonticons, Inc. --><path opacity=".4" fill="currentColor" d="M32 64l0 384 384 0 0-384-384 0zm89.4 192l11.3-11.3 112-112 11.3-11.3 22.6 22.6-11.3 11.3-100.7 100.7 100.7 100.7 11.3 11.3-22.6 22.6-11.3-11.3-112-112-11.3-11.3z"/><path fill="currentColor" d="M32 448l384 0 0-384-384 0 0 384zM0 480l0-448 448 0 0 448-448 0zM132.7 244.7l112-112 11.3-11.3 22.6 22.6-11.3 11.3-100.7 100.7 100.7 100.7 11.3 11.3-22.6 22.6-11.3-11.3-112-112-11.3-11.3 11.3-11.3z"/></svg>

<svg xmlns="http://www.w3.org/2000/svg" viewBox="0 0 448 512"><!--! Font Awesome Pro 6.7.2 by @fontawesome - https://fontawesome.com License - https://fontawesome.com/license (Commercial License) Copyright 2024 Fonticons, Inc. --><defs><style>.fa-secondary{opacity:.4}</style></defs><path class="fa-secondary" d="M32 64l0 384 384 0 0-384L32 64zm89.4 192l11.3-11.3 112-112L256 121.4 278.6 144l-11.3 11.3L166.6 256 267.3 356.7 278.6 368 256 390.6l-11.3-11.3-112-112L121.4 256z"/><path class="fa-primary" d="M32 448l384 0 0-384L32 64l0 384zM0 480l0-32L0 64 0 32l32 0 384 0 32 0 0 32 0 384 0 32-32 0L32 480 0 480zM132.7 244.7l112-112L256 121.4 278.6 144l-11.3 11.3L166.6 256 267.3 356.7 278.6 368 256 390.6l-11.3-11.3-112-112L121.4 256l11.3-11.3z"/></svg>
